public/img/smile.svg

<svg width="19" height="20" viewBox="0 0 19 20" fill="none" xmlns="http://www.w3.org/2000/svg">
<path fill-rule="evenodd" clip-rule="evenodd" d="M16.2242 3.44495C12.7132 -0.115601 7.00052 -0.115601 3.49002 3.44397C-0.0209656 7.00354 -0.0207214 12.7955 3.49051 16.3561C7.00052 19.9156 12.7132 19.9156 16.2239 16.3551C19.7346 12.7955 19.7344 7.00354 16.2242 3.44495ZM15.2417 15.359C12.2727 18.3698 7.44144 18.3698 4.4722 15.36C1.50247 12.3483 1.50296 7.44983 4.4722 4.43909C7.44144 1.42834 12.2725 1.42834 15.2422 4.43909C18.2112 7.44983 18.2107 12.3492 15.2417 15.359ZM7.55081 6.36096C6.96951 6.36096 6.49832 6.8385 6.49832 7.42834C6.49832 8.01721 6.96951 8.49573 7.55081 8.49573C8.13162 8.49573 8.60306 8.01721 8.60306 7.42834C8.60306 6.8385 8.13162 6.36096 7.55081 6.36096ZM11.2705 7.42834C11.2705 6.8385 11.7422 6.36096 12.3233 6.36096C12.9043 6.36096 13.3755 6.8385 13.3755 7.42834C13.3755 8.01721 12.9043 8.49573 12.3233 8.49573C11.7422 8.49573 11.2705 8.01721 11.2705 7.42834ZM9.86746 14.316C11.5789 14.316 13.1062 13.3278 13.7586 11.7985C13.8701 11.5367 13.7513 11.233 13.4932 11.1198C13.2351 11.0065 12.9356 11.1276 12.8238 11.3893C12.333 12.5406 11.1724 13.2838 9.86746 13.2838C8.53201 13.2838 7.36478 12.5406 6.89334 11.3903C6.81204 11.191 6.62259 11.0719 6.42313 11.0719C6.35794 11.0719 6.29178 11.0846 6.22781 11.111C5.96805 11.2203 5.845 11.5231 5.95291 11.7858C6.58255 13.3229 8.11917 14.316 9.86746 14.316Z" fill="#BBC3CF"/>
</svg>

<svg width="19" height="20" fill="none" xmlns="http://www.w3.org/2000/svg"><path fill-rule="evenodd" clip-rule="evenodd" d="M16.224 3.445A8.927 8.927 0 0 0 3.49 3.444c-3.511 3.56-3.51 9.352 0 12.912a8.926 8.926 0 0 0 12.734 0c3.51-3.56 3.51-9.352 0-12.911zm-.982 11.914a7.55 7.55 0 0 1-10.77.001c-2.97-3.012-2.969-7.91 0-10.92a7.55 7.55 0 0 1 10.77 0c2.97 3.01 2.969 7.91 0 10.919zM7.55 6.361a1.06 1.06 0 0 0-1.053 1.067A1.06 1.06 0 0 0 7.55 8.496a1.06 1.06 0 0 0 1.052-1.068A1.06 1.06 0 0 0 7.55 6.361zm3.72 1.067c0-.59.471-1.067 1.052-1.067a1.06 1.06 0 0 1 1.053 1.067 1.06 1.06 0 0 1-1.053 1.068 1.06 1.06 0 0 1-1.053-1.068zm-1.404 6.888c1.712 0 3.24-.988 3.892-2.518a.52.52 0 0 0-.266-.678.507.507 0 0 0-.67.27c-.49 1.15-1.65 1.894-2.956 1.894-1.335 0-2.502-.743-2.974-1.894a.508.508 0 0 0-.665-.279.519.519 0 0 0-.275.675c.63 1.537 2.166 2.53 3.914 2.53z" fill="#BBC3CF"/></svg>
